svg/color/cdai.svg

<?xml version="1.0" encoding="UTF-8"?>
<svg width="32px" height="32px" viewBox="0 0 32 32" version="1.1" xmlns="http://www.w3.org/2000/svg" xmlns:xlink="http://www.w3.org/1999/xlink">
    <!-- Generator: Sketch 57.1 (83088) - https://sketch.com -->
    <title>cdai</title>
    <desc>Created with Sketch.</desc>
    <defs>
        <linearGradient x1="46.0092225%" y1="5.53940196%" x2="58.6658067%" y2="92.464467%" id="linearGradient-1">
            <stop stop-color="#27D3A2" offset="0%"></stop>
            <stop stop-color="#9388FD" offset="100%"></stop>
        </linearGradient>
        <linearGradient x1="49.9997778%" y1="-14.0964798%" x2="49.9997778%" y2="110.560626%" id="linearGradient-2">
            <stop stop-color="#283947" offset="0%"></stop>
            <stop stop-color="#657786" offset="100%"></stop>
        </linearGradient>
    </defs>
    <g id="cdai" stroke="none" stroke-width="1" fill="none" fill-rule="evenodd">
        <circle id="Oval" fill="#D8D8D8" cx="16" cy="16" r="16"></circle>
        <g fill-rule="nonzero">
            <circle id="Oval" fill="#EDF0F2" cx="16" cy="16" r="16"></circle>
            <path d="M26,28.3700291 C23.5756452,30.3846582 20.6042565,31.6234673 17.4712441,31.9237847 C13.2814617,32.3367211 9.09167935,31.0603723 5.82190852,28.3700291 C2.56457027,25.679686 0.500760546,21.8005866 0.0780525294,17.5711169 C-0.232762188,14.4177845 0.388867247,11.2519388 1.8683453,8.4614899 C3.34782336,5.67104097 5.6229871,3.38112099 8.39545438,1.89204735 C11.1679217,0.402973707 14.3133666,-0.235200712 17.446379,0.0776298852 C20.5793913,0.390460483 23.5383474,1.61675642 25.9751348,3.63138547 L22.7675269,7.573051 C21.1139926,6.2091096 19.0874807,5.35821037 16.9490754,5.15799879 C14.8106702,4.94527398 12.6722649,5.38323682 10.7825114,6.39680795 C8.89275793,7.41037909 7.35111693,8.97453208 6.33164465,10.8765421 C5.32460497,12.7785521 4.90189695,14.9433399 5.11325096,17.0831012 C5.3992005,19.9611427 6.80408302,22.6139461 9.0295164,24.4408768 C11.2549498,26.2803207 14.1144452,27.1437332 16.9739406,26.855929 C19.1123459,26.6432042 21.1264252,25.792305 22.7799595,24.4283636 L26,28.3700291 Z" id="Path" fill="url(#linearGradient-1)"></path>
            <path d="M16.0062231,29 C23.1876496,29 29,23.1752034 29,16.0062231 C29,8.82479655 23.1876496,3 16.0062231,3 C8.82479655,3 3,8.82479655 3,16.0062231 C3,23.1876496 8.82479655,29 16.0062231,29 Z" id="Path" fill="#FFFFFF"></path>
            <path d="M22,14.2464146 L20.8144444,14.2464146 C20.1666667,12.3168188 18.4188889,11 16.1088889,11 L12.32,11 L12.32,14.2464146 L11,14.2464146 L11,15.4067797 L12.32,15.4067797 L12.32,16.6323338 L11,16.6323338 L11,17.7926988 L12.32,17.7926988 L12.32,21 L16.1088889,21 C18.3822222,21 20.1177778,19.696219 20.79,17.7926988 L22,17.7926988 L22,16.6323338 L21.0588889,16.6323338 C21.0833333,16.4237288 21.0955556,16.2151239 21.0955556,16.0065189 L21.0955556,15.9804433 C21.0955556,15.7848761 21.0833333,15.6023468 21.0711111,15.4198175 L22,15.4198175 L22,14.2464146 L22,14.2464146 Z M13.3833333,12.0430248 L16.1088889,12.0430248 C17.7955556,12.0430248 19.0544444,12.9295958 19.6411111,14.2464146 L13.3833333,14.2464146 L13.3833333,12.0430248 L13.3833333,12.0430248 Z M16.1088889,19.9569752 L13.3833333,19.9569752 L13.3833333,17.7926988 L19.6411111,17.7926988 C19.0544444,19.0964798 17.7955556,19.9569752 16.1088889,19.9569752 Z M19.9955556,16.0325945 C19.9955556,16.2411995 19.9833333,16.4367666 19.9588889,16.6323338 L13.3833333,16.6323338 L13.3833333,15.4067797 L19.9588889,15.4067797 C19.9833333,15.6023468 19.9955556,15.797914 19.9955556,15.9934811 L19.9955556,16.0325945 Z" id="Shape" fill="url(#linearGradient-2)"></path>
        </g>
    </g>
</svg>

<svg width="32" height="32" xmlns="http://www.w3.org/2000/svg"><defs><linearGradient x1="46.009%" y1="5.539%" x2="58.666%" y2="92.464%" id="a"><stop stop-color="#27D3A2" offset="0%"/><stop stop-color="#9388FD" offset="100%"/></linearGradient><linearGradient x1="50%" y1="-14.096%" x2="50%" y2="110.561%" id="b"><stop stop-color="#283947" offset="0%"/><stop stop-color="#657786" offset="100%"/></linearGradient></defs><g fill="none" fill-rule="evenodd"><circle fill="#D8D8D8" cx="16" cy="16" r="16"/><g fill-rule="nonzero"><circle fill="#EDF0F2" cx="16" cy="16" r="16"/><path d="M26 28.37a15.688 15.688 0 0 1-8.529 3.554c-4.19.413-8.38-.864-11.65-3.554A16.066 16.066 0 0 1 .079 17.571a16.07 16.07 0 0 1 1.79-9.11 15.927 15.927 0 0 1 6.527-6.569A15.801 15.801 0 0 1 17.446.078a15.821 15.821 0 0 1 8.53 3.553l-3.208 3.942a10.73 10.73 0 0 0-5.819-2.415 10.774 10.774 0 0 0-6.166 1.239 10.922 10.922 0 0 0-4.451 4.48 10.975 10.975 0 0 0-1.219 6.206 10.912 10.912 0 0 0 3.917 7.358 10.77 10.77 0 0 0 7.944 2.415 10.802 10.802 0 0 0 5.806-2.428L26 28.37Z" fill="url(#a)"/><path d="M16.006 29C23.188 29 29 23.175 29 16.006 29 8.825 23.188 3 16.006 3 8.825 3 3 8.825 3 16.006 3 23.188 8.825 29 16.006 29Z" fill="#FFF"/><path d="M22 14.246h-1.186C20.167 12.316 18.42 11 16.11 11H12.32v3.246H11v1.16h1.32v1.226H11v1.16h1.32V21h3.789c2.273 0 4.009-1.304 4.681-3.207H22v-1.16h-.941c.024-.21.037-.418.037-.626v-.027c0-.195-.013-.378-.025-.56H22v-1.174Zm-8.617-2.203h2.726c1.687 0 2.945.887 3.532 2.203h-6.258v-2.203Zm2.726 7.914h-2.726v-2.164h6.258c-.587 1.303-1.845 2.164-3.532 2.164Zm3.887-3.924c0 .208-.013.404-.037.6h-6.576v-1.226h6.576c.024.195.037.39.037.586v.04Z" fill="url(#b)"/></g></g></svg>
